static/logos/sanity-wordmark-color.svg

<svg width="100" height="20" viewBox="0 0 100 20" fill="none" xmlns="http://www.w3.org/2000/svg">
<g clip-path="url(#clip0_1_1193)">
<path opacity="0.7" d="M74.6545 7.01047V19.4604H70.5625V9.136L74.6545 7.01047Z" fill="#E78376"/>
<path opacity="0.7" d="M19.8906 19.7735L29.4531 14.7736L28.2744 11.72L21.9787 14.6559L19.8906 19.7735Z" fill="#E78376"/>
<path opacity="0.5" d="M70.5625 9.12538L80.9368 3.81636L79.184 0.852081L70.5625 5.06535V9.12538Z" fill="#EEA69D"/>
<path opacity="0.7" d="M41.3397 6.02455V19.4604H37.4375V0.325806L41.3397 6.02455Z" fill="#E78376"/>
<path opacity="0.5" d="M25.8053 5.28181L19.8927 19.7735L16.8516 17.1557L23.8967 0.325806L25.8053 5.28181Z" fill="#EEA69D"/>
<path d="M23.8906 0.325806H27.9216L35.3771 19.4604H31.2509L23.8906 0.325806Z" fill="#DD4E3B"/>
<path d="M41.9432 0.325806L50.5377 13.3986V19.4604L37.4375 0.325806H41.9432Z" fill="#DD4E3B"/>
<path d="M61.9602 0.325806H57.8984V19.4638H61.9602V0.325806Z" fill="#DD4E3B"/>
<path d="M70.5643 3.81632H64.3125V0.325806H78.8739L80.9387 3.81632H74.6564H70.5643Z" fill="#DD4E3B"/>
<path opacity="0.5" d="M92.9295 12.1996V19.4604H88.8984V12.1996" fill="#EEA69D"/>
<path d="M88.8984 12.1995L95.7196 0.325806H100.002L92.9295 12.1995H88.8984Z" fill="#DD4E3B"/>
<path opacity="0.7" d="M88.894 12.1995L81.8828 0.325806H86.2936L91.0434 8.46259L88.894 12.1995Z" fill="#E78376"/>
<path d="M1.7153 2.53409C1.7153 5.19862 3.39013 6.78401 6.74315 7.62001L10.2962 8.42935C13.4695 9.1454 15.402 10.924 15.402 13.8217C15.4267 15.0841 15.0089 16.3164 14.2188 17.3121C14.2188 14.4212 12.6966 12.8591 9.02484 11.9198L5.5362 11.1405C2.74257 10.5143 0.586331 9.05219 0.586331 5.90471C0.571637 4.68926 0.968801 3.5035 1.7153 2.53409Z" fill="#DD4E3B"/>
<path opacity="0.7" d="M50.5391 12.4161V0.325806H54.4411V19.4604H50.5391V12.4161Z" fill="#E78376"/>
<path opacity="0.7" d="M12.0358 13.1122C13.5512 14.0647 14.2157 15.397 14.2157 17.3088C12.9614 18.8876 10.7576 19.7735 8.16744 19.7735C3.80749 19.7735 0.756189 17.6652 0.078125 14.0015H4.26517C4.80423 15.6835 6.23155 16.4629 8.13691 16.4629C10.4627 16.4629 12.0087 15.2438 12.0392 13.1055" fill="#E78376"/>
<path opacity="0.7" d="M3.89151 6.48421C3.19948 6.08018 2.63173 5.49961 2.24851 4.80412C1.86529 4.10863 1.6809 3.3242 1.71492 2.53407C2.92526 0.968658 5.03066 0.0127563 7.59712 0.0127563C12.0384 0.0127563 14.6083 2.31756 15.2423 5.56163H11.2146C10.7705 4.28265 9.65843 3.2868 7.63103 3.2868C5.46462 3.2868 3.98644 4.52579 3.90167 6.48421" fill="#E78376"/>
</g>
<defs>
<clipPath id="clip0_1_1193">
<rect width="100" height="19.7767" fill="white"/>
</clipPath>
</defs>
</svg>

<svg xmlns="http://www.w3.org/2000/svg" width="320" height="64" fill="none" viewBox="0 0 100 20"><g clip-path="url(#a)"><path fill="#E78376" d="M74.654 7.01v12.45h-4.091V9.136l4.091-2.126ZM19.89 19.773l9.563-5-1.179-3.053-6.295 2.936-2.088 5.117Z" opacity=".7"/><path fill="#EEA69D" d="m70.563 9.125 10.374-5.309L79.184.852l-8.621 4.213v4.06Z" opacity=".5"/><path fill="#E78376" d="M41.34 6.025V19.46h-3.903V.326l3.903 5.699Z" opacity=".7"/><path fill="#EEA69D" d="m25.805 5.282-5.912 14.491-3.041-2.617L23.897.326l1.908 4.956Z" opacity=".5"/><path fill="#DD4E3B" d="M23.89.326h4.032l7.455 19.134h-4.126L23.89.326ZM41.943.326l8.595 13.073v6.061L37.438.326h4.505ZM61.96.326h-4.062v19.138h4.062V.326ZM70.564 3.816h-6.251V.326h14.56l2.066 3.49H70.564Z"/><path fill="#EEA69D" d="M92.93 12.2v7.26h-4.032V12.2" opacity=".5"/><path fill="#DD4E3B" d="M88.898 12.2 95.72.325h4.282L92.93 12.199h-4.032Z"/><path fill="#E78376" d="M88.894 12.2 81.883.325h4.41l4.75 8.137-2.149 3.737Z" opacity=".7"/><path fill="#DD4E3B" d="M1.715 2.534c0 2.665 1.675 4.25 5.028 5.086l3.553.81c3.174.715 5.106 2.494 5.106 5.392a5.442 5.442 0 0 1-1.183 3.49c0-2.89-1.522-4.453-5.194-5.392l-3.489-.78C2.743 10.514.586 9.052.586 5.905a5.415 5.415 0 0 1 1.13-3.37Z"/><path fill="#E78376" d="M50.54 12.416V.326h3.901V19.46H50.54v-7.044ZM12.036 13.112c1.515.953 2.18 2.285 2.18 4.197-1.255 1.579-3.458 2.464-6.049 2.464-4.36 0-7.41-2.108-8.089-5.771h4.187c.54 1.681 1.967 2.46 3.872 2.46 2.326 0 3.872-1.218 3.902-3.357M3.892 6.484a4.415 4.415 0 0 1-1.643-1.68 4.317 4.317 0 0 1-.534-2.27C2.925.97 5.03.013 7.597.013c4.441 0 7.011 2.305 7.645 5.549h-4.027c-.444-1.28-1.557-2.275-3.584-2.275-2.166 0-3.645 1.239-3.73 3.197" opacity=".7"/></g><defs><clipPath id="a"><path fill="#fff" d="M0 0h100v19.777H0z"/></clipPath></defs></svg>
